Obsidian-SemiLight/actions/16s/text-put-on-path.svg

<svg viewBox="0 0 16 16" xmlns="http://www.w3.org/2000/svg"><path d="m12.337891 1.9648438a2 2 0 0 0 -.169922.0136718v.0019532a2 2 0 0 0 -1.726563 2.2382812 2 2 0 0 0 2.238282 1.7285156 2 2 0 0 0 1.328124-.7636718l-.792968-.609375a1 1 0 0 1 -.66211.3808593 1 1 0 0 1 -1.121093-.8632812 1 1 0 0 1 .863281-1.1210938 1 1 0 0 1 .740234.2011719l.609375-.7929688a2 2 0 0 0 -1.30664-.4140624zm-9.3046879 1.7558593-.6640625.75 5.2382813 4.6425781.6640625-.7480468-.203125-.1796875c.333-.111.6322344-.3073125.8652344-.5703125.7329999-.827.6570781-2.0902657-.1699219-2.8222656-.827-.7330001-2.0902656-.6570782-2.8222657.1699218-.232.264-.3919375.5837344-.4609374.9277344zm4.3457031 1.5722657c.2555001-.0153751.5156563.067.7226563.25.413.366.4519375.9961562.0859375 1.4101562-.366.413-.9981094.4519375-1.4121094.0859375-.413-.366-.4519375-.9981094-.0859375-1.4121094.183-.2065.4339531-.3186093.6894531-.3339843zm-4.4882812 4.1074218-.3710938.9277344.2519532.101563a2 2 0 0 0 -.6210938.828124 2 2 0 0 0 1.1152344 2.59961 2 2 0 0 0 2.5996094-1.117188 2 2 0 0 0 .1191406-1.029296l.25.099609.3710938-.927735-1.859375-.742187zm1.125 1.5976564a1 1 0 0 1 .3613281.072265 1 1 0 0 1 .5585938 1.298829 1 1 0 0 1 -1.2988281.558593 1 1 0 0 1 -.5585938-1.298828 1 1 0 0 1 .9375-.630859z" fill="#4d4d4d"/><path d="m14 7a7 7 0 0 0 -7 7h1a6 6 0 0 1 6-6z" fill="#3daee9"/></svg>

<svg xmlns="http://www.w3.org/2000/svg" viewBox="0 0 16 16">
  <defs id="defs3051">
    <style type="text/css" id="current-color-scheme">
      .ColorScheme-Text {
        color:#4d4d4d;
      }
      .ColorScheme-Highlight {
        color:#3daee9;
      }
      </style>
  </defs>
 <path style="fill:currentColor;fill-opacity:1;stroke:none" 
       d="M 12.337891 1.9648438 A 2 2 0 0 0 12.167969 1.9785156 L 12.167969 1.9804688 A 2 2 0 0 0 10.441406 4.21875 A 2 2 0 0 0 12.679688 5.9472656 A 2 2 0 0 0 14.007812 5.1835938 L 13.214844 4.5742188 A 1 1 0 0 1 12.552734 4.9550781 A 1 1 0 0 1 11.431641 4.0917969 A 1 1 0 0 1 12.294922 2.9707031 A 1 1 0 0 1 13.035156 3.171875 L 13.644531 2.3789062 A 2 2 0 0 0 12.337891 1.9648438 z M 3.0332031 3.7207031 L 2.3691406 4.4707031 L 7.6074219 9.1132812 L 8.2714844 8.3652344 L 8.0683594 8.1855469 C 8.4013594 8.0745469 8.7005938 7.8782344 8.9335938 7.6152344 C 9.6665937 6.7882344 9.5906719 5.5249687 8.7636719 4.7929688 C 7.9366719 4.0599687 6.6734063 4.1358906 5.9414062 4.9628906 C 5.7094062 5.2268906 5.5494687 5.546625 5.4804688 5.890625 L 3.0332031 3.7207031 z M 7.3789062 5.2929688 C 7.6344063 5.2775937 7.8945625 5.3599688 8.1015625 5.5429688 C 8.5145625 5.9089688 8.5535 6.539125 8.1875 6.953125 C 7.8215 7.366125 7.1893906 7.4050625 6.7753906 7.0390625 C 6.3623906 6.6730625 6.3234531 6.0409531 6.6894531 5.6269531 C 6.8724531 5.4204531 7.1234062 5.3083438 7.3789062 5.2929688 z M 2.890625 9.4003906 L 2.5195312 10.328125 L 2.7714844 10.429688 A 2 2 0 0 0 2.1503906 11.257812 A 2 2 0 0 0 3.265625 13.857422 A 2 2 0 0 0 5.8652344 12.740234 A 2 2 0 0 0 5.984375 11.710938 L 6.234375 11.810547 L 6.6054688 10.882812 L 4.7460938 10.140625 L 2.890625 9.4003906 z M 4.015625 10.998047 A 1 1 0 0 1 4.3769531 11.070312 A 1 1 0 0 1 4.9355469 12.369141 A 1 1 0 0 1 3.6367188 12.927734 A 1 1 0 0 1 3.078125 11.628906 A 1 1 0 0 1 4.015625 10.998047 z "
       class="ColorScheme-Text"
     />
 <path style="fill:currentColor;fill-opacity:1;stroke:none" 
       d="M 14 7 A 7 7 0 0 0 7 14 L 8 14 A 6 6 0 0 1 14 8 L 14 7 z "
       class="ColorScheme-Highlight"
     />
</svg>
